frontend/public/assets/material-icons/folder-jinja-open.svg

<svg xmlns="http://www.w3.org/2000/svg" viewBox="0 0 32 32">
  <path d="M28.96692,12H9.44152a2,2,0,0,0-1.89737,1.36754L4,24V10H28a2,2,0,0,0-2-2H15.1241a2,2,0,0,1-1.28038-.46357L12.5563,6.46357A2,2,0,0,0,11.27592,6H4A2,2,0,0,0,2,8V24a2,2,0,0,0,2,2H26l4.80523-11.21213A2,2,0,0,0,28.96692,12Z" style="fill: #e0e0e0"/>
  <path d="M32,17V14a41.26251,41.26251,0,0,1-9,1,41.26251,41.26251,0,0,1-9-1v3a36.08426,36.08426,0,0,0,3.93805.6814L17.72729,20H14v2h3.54547L17,28h3V22h6v6h3l-.54547-6H32V20H28.27271L28.062,17.6814A36.08426,36.08426,0,0,0,32,17Zm-6,3H24V18H22v2H20V17.88354C20.93811,17.95386,21.94452,18,23,18s2.06189-.04614,3-.11646Z" style="fill: #424242;fill-rule: evenodd"/>
</svg>

<svg xmlns="http://www.w3.org/2000/svg" viewBox="0 0 32 32"><path fill="#e0e0e0" d="M28.967 12H9.442a2 2 0 0 0-1.898 1.368L4 24V10h24a2 2 0 0 0-2-2H15.124a2 2 0 0 1-1.28-.464l-1.288-1.072A2 2 0 0 0 11.276 6H4a2 2 0 0 0-2 2v16a2 2 0 0 0 2 2h22l4.805-11.212A2 2 0 0 0 28.967 12"/><path fill="#424242" d="M32 17v-3a41.3 41.3 0 0 1-9 1 41.3 41.3 0 0 1-9-1v3a36 36 0 0 0 3.938.681L17.728 20H14v2h3.545L17 28h3v-6h6v6h3l-.545-6H32v-2h-3.727l-.211-2.319A36 36 0 0 0 32 17m-6 3h-2v-2h-2v2h-2v-2.116c.938.07 1.945.116 3 .116s2.062-.046 3-.116Z"/></svg>
